!!!OTL: Ech sin eso' al, ech sin eso' kal (3-19), S. 50f
!!!id: K1156
**kern
*clefG2
*k[]
*C:
{16c
=1
16c
8cc
8cc
8cc
=2
8cc
8b
8a
=3
8g
8g
8g
=4
4e}
=5
{8g
=6
4a
8a
=7
8b
8a
8b
=8
4cc}
=9
{8cc
=10
4ff
8ff
=11
8ff
8ee
8dd
=12
8.ee
16ee
8ee
=13
8ee
8dd}
=14
{8cc
=15
4dd
8dd
=16
8dd
8cc
8b
=17
8cc
8b
8a
=18
4g}
=19
{8g
=20
8.ff
16ff
8ff
=21
8ff
8ee
8dd
=22
8.ee
16ee
8ee
=23
8ee
8dd}
=24
{8cc
=25
8.dd
16dd
8dd
=26
8ff
8dd
8b
=27
8.dd
16cc
8b
=28
4cc}
8r
==
*-
!!!minrhy: 16
!!!meters: 3/8 ]  ZZ[6
!!!cut: Ech sin eso' al, ech sin eso' kal (3-19), S. 50f
!!!reg: Luxemburg
!!!trd: KINTZELE, Guillaume: An der Ucht, Bd. 3 Luxemburg 1928
!!!rhy1:   X_X_X_  X_X_X_  X_X_X_  X__   (x2)
!!!rhy2: X_  X__X_  X_X_X_  X__
!!!key: K1156  16  C 3/8 ]  ZZ[6
!!!mod: HEPTATONIK IONISCH]  AMBITUS[9b
!!!kad: 3+1+25+2+1
!!!akz: +1+153_67+1_+4+4+3+3_+2+2+15_+4+4+3+3_+2+4+2+1_
!!!fot: 'a__b__c__d__cw_e__
!!!for: 'a__b__bw_bw_c__cw_
!!!fok: '\__/__^a_\__^a_^__
!! PHRAS[VORWIEGEND AUFTAKTIG]
!!!fkt: Scherz-, Spottlied &uuml;ber die Liebe
!! KINTZELE
!! PR[33] 2K[3] 2G[5] 3K[2] 3G[3] 4A[7] 4Ü[0] 5A[2] 6K[2] 6G[0]
!! 7K[0] 7G[0] 8A[0] MEHR[0] SI[24] ABS[58] SR[9] SP[16]
!! ST[18] 2k[12] 2g[28] 3k[0] 3g[0] 4d[3] 4ü[0] 5d[0] 6k[0] 6g[0]
!! 7k[0] 7g[0] 8d[0] mehr[0] si[43] dm[-19] sr[40] sp[3]
!! 1F[7] 2F[10] 3F[73] 4F[3] LF[0] 2P[7] 3P[0] 4P[0] TRI[0] DF[5] AB[59]
!! TF[0] U3K[0] U3[0] U4[0] U4Ü[0] U5[7] U6K[0] U6[0] U7K[0] U7[0]
!! N1[19] N2K[0] N2[25] N3K[22] N3[0] N4[10] N4Ü[0] N5[12] N6K[5] N6[0]
!!!n7k: 0] N7[0] O1[0] O2K[0] O2[0] O3K[0] O3[0] HÖ[0
!!!RNB: symbol: &uuml;  = u umlaut (UTF-8: Ã¼)
